Hatter/scalable/apps/applications-education-science.svg

<?xml version="1.0" encoding="UTF-8" standalone="no"?>
<svg
   xmlns:dc="http://purl.org/dc/elements/1.1/"
   xmlns:cc="http://creativecommons.org/ns#"
   xmlns:rdf="http://www.w3.org/1999/02/22-rdf-syntax-ns#"
   xmlns:svg="http://www.w3.org/2000/svg"
   xmlns="http://www.w3.org/2000/svg"
   xmlns:xlink="http://www.w3.org/1999/xlink"
   xmlns:sodipodi="http://sodipodi.sourceforge.net/DTD/sodipodi-0.dtd"
   xmlns:inkscape="http://www.inkscape.org/namespaces/inkscape"
   height="64"
   viewBox="0 0 64 64"
   width="64"
   version="1.1"
   id="svg23"
   sodipodi:docname="applications-education-science.svg"
   inkscape:version="1.0.1 (3bc2e813f5, 2020-09-07, custom)">
  <metadata
     id="metadata29">
    <rdf:RDF>
      <cc:Work
         rdf:about="">
        <dc:format>image/svg+xml</dc:format>
        <dc:type
           rdf:resource="http://purl.org/dc/dcmitype/StillImage" />
        <dc:title></dc:title>
      </cc:Work>
    </rdf:RDF>
  </metadata>
  <defs
     id="defs27">
    <filter
       color-interpolation-filters="sRGB"
       height="1.048"
       width="1.048"
       y="-.024"
       x="-.024"
       id="filter2761">
      <feGaussianBlur
         id="feGaussianBlur4"
         stdDeviation="0.14552168" />
    </filter>
    <linearGradient
       gradientUnits="userSpaceOnUse"
       gradientTransform="matrix(3.7796,0,0,3.7796,93.808377,0.53085)"
       y2="1.1269"
       y1="15.576"
       x2="15.673"
       x1="1.3315"
       id="linearGradient1024">
      <stop
         id="stop7-7"
         offset="0"
         stop-color="#a53cff" />
      <stop
         id="stop9-5"
         offset="1"
         stop-color="#b496ff" />
    </linearGradient>
    <linearGradient
       gradientUnits="userSpaceOnUse"
       gradientTransform="matrix(1.2346,0,0,1.2346,2.3832028,3.6047)"
       y2="4"
       y1="44"
       x2="0"
       id="linearGradient890">
      <stop
         id="stop4-3"
         offset="0"
         stop-color="#FFB900" />
      <stop
         id="stop6"
         offset="1"
         stop-color="#ff0" />
    </linearGradient>
    <filter
       color-interpolation-filters="sRGB"
       height="1.048"
       width="1.048"
       y="-.024"
       x="-.024"
       id="filter2761-67">
      <feGaussianBlur
         id="feGaussianBlur9"
         stdDeviation="0.14552168" />
    </filter>
    <linearGradient
       gradientUnits="userSpaceOnUse"
       gradientTransform="matrix(3.7796,0,0,3.7796,66.443573,0.53068)"
       y2="1.1082"
       y1="15.601"
       x2="15.644"
       x1="1.4377"
       id="linearGradient4673">
      <stop
         id="stop12-5"
         offset="0"
         stop-color="#dc2828" />
      <stop
         id="stop14-6"
         offset="1"
         stop-color="#fa4141" />
    </linearGradient>
    <linearGradient
       gradientUnits="userSpaceOnUse"
       y2="9.67"
       y1="54.592"
       x2="34.134"
       x1="34.134"
       id="linearGradient915">
      <stop
         id="stop17"
         offset="0"
         stop-color="#ffb900" />
      <stop
         id="stop19"
         offset="1"
         stop-color="#ff0" />
    </linearGradient>
    <filter
       inkscape:collect="always"
       style="color-interpolation-filters:sRGB"
       id="filter1057"
       x="-0.027000001"
       width="1.054"
       y="-0.027000001"
       height="1.054">
      <feGaussianBlur
         inkscape:collect="always"
         stdDeviation="0.61875"
         id="feGaussianBlur1059" />
    </filter>
    <linearGradient
       inkscape:collect="always"
       xlink:href="#linearGradient1051"
       id="linearGradient1053"
       x1="-127"
       y1="60"
       x2="-127"
       y2="5"
       gradientUnits="userSpaceOnUse"
       gradientTransform="translate(131.5,-0.50999746)" />
    <linearGradient
       inkscape:collect="always"
       id="linearGradient1051">
      <stop
         style="stop-color:#a53cff;stop-opacity:1"
         offset="0"
         id="stop1047" />
      <stop
         style="stop-color:#b496ff;stop-opacity:1"
         offset="1"
         id="stop1049" />
    </linearGradient>
    <linearGradient
       id="linearGradient890-3"
       x2="0"
       y1="44"
       y2="4"
       gradientTransform="matrix(1.2346,0,0,1.2346,3.1419,3.6047)"
       gradientUnits="userSpaceOnUse">
      <stop
         stop-color="#FFB900"
         offset="0"
         id="stop861" />
      <stop
         stop-color="#ff0"
         offset="1"
         id="stop863" />
    </linearGradient>
    <filter
       id="filter2761-6"
       x="-.024"
       y="-.024"
       width="1.048"
       height="1.048"
       color-interpolation-filters="sRGB">
      <feGaussianBlur
         stdDeviation="0.14552168"
         id="feGaussianBlur866" />
    </filter>
  </defs>
  <sodipodi:namedview
     pagecolor="#ffffff"
     bordercolor="#666666"
     borderopacity="1"
     objecttolerance="10"
     gridtolerance="10"
     guidetolerance="10"
     inkscape:pageopacity="0"
     inkscape:pageshadow="2"
     inkscape:window-width="1920"
     inkscape:window-height="942"
     id="namedview25"
     showgrid="false"
     inkscape:zoom="6.0546875"
     inkscape:cx="3.2520792"
     inkscape:cy="15.944504"
     inkscape:window-x="0"
     inkscape:window-y="38"
     inkscape:window-maximized="1"
     inkscape:current-layer="svg23" />
  <linearGradient
     id="a"
     gradientUnits="userSpaceOnUse"
     x1="396.66663"
     x2="396.66663"
     y1="518.07947"
     y2="545.1543"
     gradientTransform="matrix(2.0016201,0,0,2.0016201,-852.84554,-1032.3463)">
    <stop
       offset="0"
       stop-color="#db50c8"
       id="stop2" />
    <stop
       offset="1"
       stop-color="#981fe7"
       id="stop4" />
  </linearGradient>
  <linearGradient
     id="b"
     gradientUnits="userSpaceOnUse"
     x1="403.43533"
     x2="402.46838"
     y1="545.1543"
     y2="518.07947"
     gradientTransform="matrix(2.0016201,0,0,2.0016201,-852.84554,-1032.3463)">
    <stop
       offset="0"
       stop-color="#981fe7"
       id="stop7" />
    <stop
       offset="1"
       stop-color="#db50c8"
       id="stop9" />
  </linearGradient>
  <linearGradient
     id="c"
     gradientUnits="userSpaceOnUse"
     x1="18.245573"
     x2="16.811239"
     y1="29.791063"
     y2="1.104376"
     gradientTransform="matrix(1.1944399,0,0,1.1944399,-70.922936,14.111417)">
    <stop
       offset="0"
       stop-color="#d3d3d3"
       id="stop12" />
    <stop
       offset="1"
       stop-color="#fcf9f9"
       id="stop14" />
  </linearGradient>
  <g
     fill="#5e4aa6"
     id="g30">
    <circle
       cx="-1248.7"
       cy="-1241.6"
       r="0"
       id="circle24" />
    <circle
       cx="-1140.3"
       cy="-1301.8"
       r="0"
       id="circle26" />
    <circle
       cx="-1158.1"
       cy="-1246"
       r="0"
       id="circle28" />
  </g>
  <circle
     cx="-1157.3"
     cy="-1267.7"
     r="0"
     fill="#5e4aa6"
     id="circle36" />
  <circle
     cx="-57.756001"
     cy="-2.1829"
     r="0"
     fill="#5e4aa6"
     fill-rule="evenodd"
     id="circle38" />
  <rect
     ry="15"
     y="4.5"
     x="4.5"
     height="55"
     width="55"
     id="rect1055"
     style="opacity:0.3;fill:#141414;fill-opacity:1;stroke-width:2.74436;stroke-linecap:round;filter:url(#filter1057)" />
  <rect
     style="fill:url(#linearGradient1053);fill-opacity:1;stroke-width:2.74436;stroke-linecap:round"
     id="rect1045"
     width="54.999996"
     height="54.999996"
     x="4.5000019"
     y="4.5000019"
     ry="14.999999" />
  <path
     id="rect996"
     style="opacity:1;fill:#ffffff;fill-opacity:1;stroke-width:2;stroke-linecap:round;stroke-linejoin:round;paint-order:stroke fill markers"
     d="M 39.59375 13.169922 C 39.419646 13.179461 39.243494 13.205967 39.068359 13.251953 C 38.016058 13.529063 37.281682 14.406278 37.134766 15.417969 C 35.156773 16.25766 28.405196 19.994836 29.412109 31.640625 C 22.017332 31.855624 18.128341 33.813746 16.359375 35.091797 C 15.904293 34.948464 15.405849 34.926443 14.910156 35.056641 C 13.507884 35.429307 12.671175 36.860963 13.039062 38.265625 C 13.409339 39.669092 14.845774 40.509384 16.248047 40.136719 C 17.404265 39.833332 18.175653 38.80117 18.203125 37.664062 L 25.933594 45.779297 C 25.752039 45.891574 25.573584 45.99516 25.400391 46.085938 C 24.78406 45.636828 23.979091 45.458619 23.183594 45.664062 C 21.781322 46.034338 20.943418 47.471533 21.3125 48.875 C 21.682776 50.278467 23.118017 51.117565 24.521484 50.746094 C 25.615591 50.459428 26.362122 49.520519 26.464844 48.455078 C 30.081608 46.658641 33.076085 42.246161 32.294922 34.199219 C 34.615718 34.188469 36.753927 33.927123 38.675781 33.421875 C 41.549604 32.665794 43.93847 31.371641 45.748047 29.564453 C 48.030621 27.281878 49.334475 24.291872 49.556641 20.855469 C 50.669859 20.32036 51.288215 19.056993 50.960938 17.818359 C 50.590662 16.416087 49.156178 15.580137 47.753906 15.949219 C 46.349245 16.318301 45.511777 17.752783 45.880859 19.15625 C 46.055247 19.814386 46.462615 20.345454 46.994141 20.689453 C 46.866336 22.617279 46.293002 24.966289 44.595703 27.019531 C 39.811971 21.562135 37.790715 19.335396 36.855469 18.433594 C 37.354745 18.117068 37.776384 17.919677 38.054688 17.808594 C 38.686546 18.334148 39.552984 18.559733 40.408203 18.333984 C 41.809281 17.964902 42.647621 16.528031 42.277344 15.126953 C 41.952307 13.89892 40.812475 13.103148 39.59375 13.169922 z M 35.826172 19.189453 C 36.837863 20.189199 40.763061 24.608904 43.710938 27.962891 C 43.071913 28.5625 42.339127 29.09331 41.529297 29.550781 C 37.329646 24.759882 35.188001 22.370109 34.044922 21.181641 C 34.617059 20.34195 35.236119 19.687535 35.826172 19.189453 z M 33.367188 22.330078 C 34.978487 24.070377 37.97127 27.447921 40.339844 30.142578 C 39.398625 30.553465 38.370918 30.880575 37.263672 31.123047 L 32.302734 25.304688 C 32.5679 24.154443 32.935994 23.170963 33.367188 22.330078 z M 32.017578 26.951172 L 35.798828 31.384766 C 34.609166 31.556765 33.336692 31.639979 31.994141 31.632812 C 31.825725 29.865042 31.85275 28.311639 32.017578 26.951172 z M 29.714844 34.205078 C 29.802034 35.000575 29.84743 35.743095 29.859375 36.439453 L 27.623047 34.306641 C 28.282378 34.255281 28.979069 34.2218 29.714844 34.205078 z M 25.939453 34.482422 L 29.8125 38.177734 C 29.699028 39.683923 29.403834 40.930571 28.994141 41.958984 L 22.224609 35.212891 C 23.264967 34.921448 24.49657 34.662783 25.939453 34.482422 z M 20.845703 35.654297 L 28.402344 43.183594 C 27.969957 43.92773 27.474111 44.518431 26.962891 44.990234 L 18.896484 36.525391 C 19.413677 36.244698 20.054984 35.943351 20.845703 35.654297 z " />
</svg>

<?xml version="1.0" encoding="UTF-8"?>
<svg id="svg23" width="64" height="64" version="1.1" viewBox="0 0 64 64" xmlns="http://www.w3.org/2000/svg" xmlns:cc="http://creativecommons.org/ns#" xmlns:dc="http://purl.org/dc/elements/1.1/" xmlns:rdf="http://www.w3.org/1999/02/22-rdf-syntax-ns#" xmlns:xlink="http://www.w3.org/1999/xlink">
 <metadata id="metadata29">
  <rdf:RDF>
   <cc:Work rdf:about="">
    <dc:format>image/svg+xml</dc:format>
    <dc:type rdf:resource="http://purl.org/dc/dcmitype/StillImage"/>
    <dc:title/>
   </cc:Work>
  </rdf:RDF>
 </metadata>
 <defs id="defs27">
  <filter id="filter1057" x="-.027" y="-.027" width="1.054" height="1.054" color-interpolation-filters="sRGB">
   <feGaussianBlur id="feGaussianBlur1059" stdDeviation="0.61875"/>
  </filter>
  <linearGradient id="linearGradient1053" x1="-127" x2="-127" y1="60" y2="5" gradientTransform="translate(131.5 -.51)" gradientUnits="userSpaceOnUse">
   <stop id="stop1047" stop-color="#a53cff" offset="0"/>
   <stop id="stop1049" stop-color="#b496ff" offset="1"/>
  </linearGradient>
 </defs>
 <g id="g30" fill="#5e4aa6">
  <circle id="circle24" cx="-1248.7" cy="-1241.6" r="0"/>
  <circle id="circle26" cx="-1140.3" cy="-1301.8" r="0"/>
  <circle id="circle28" cx="-1158.1" cy="-1246" r="0"/>
 </g>
 <circle id="circle36" cx="-1157.3" cy="-1267.7" r="0" fill="#5e4aa6"/>
 <circle id="circle38" cx="-57.756" cy="-2.1829" r="0" fill="#5e4aa6" fill-rule="evenodd"/>
 <rect id="rect1055" x="4.5" y="4.5" width="55" height="55" ry="15" fill="#141414" filter="url(#filter1057)" opacity=".3" stroke-linecap="round" stroke-width="2.7444"/>
 <rect id="rect1045" x="4.5" y="4.5" width="55" height="55" ry="15" fill="url(#linearGradient1053)" stroke-linecap="round" stroke-width="2.7444"/>
 <path id="rect996" d="m39.594 13.17c-0.1741 0.009539-0.35026 0.036045-0.52539 0.082031-1.0523 0.27711-1.7867 1.1543-1.9336 2.166-1.978 0.83969-8.7296 4.5769-7.7227 16.223-7.3948 0.215-11.284 2.1731-13.053 3.4512-0.45508-0.14333-0.95353-0.16535-1.4492-0.035156-1.4023 0.37267-2.239 1.8043-1.8711 3.209 0.37028 1.4035 1.8067 2.2438 3.209 1.8711 1.1562-0.30339 1.9276-1.3355 1.9551-2.4727l7.7305 8.1152c-0.18156 0.11228-0.36001 0.21586-0.5332 0.30664-0.61633-0.44911-1.4213-0.62732-2.2168-0.42188-1.4023 0.37028-2.2402 1.8075-1.8711 3.2109 0.37028 1.4035 1.8055 2.2426 3.209 1.8711 1.0941-0.28667 1.8406-1.2256 1.9434-2.291 3.6168-1.7964 6.6112-6.2089 5.8301-14.256 2.3208-0.01075 4.459-0.2721 6.3809-0.77734 2.8738-0.75608 5.2627-2.0502 7.0723-3.8574 2.2826-2.2826 3.5864-5.2726 3.8086-8.709 1.1132-0.53511 1.7316-1.7985 1.4043-3.0371-0.37028-1.4023-1.8048-2.2382-3.207-1.8691-1.4047 0.36908-2.2421 1.8036-1.873 3.207 0.17439 0.65814 0.58176 1.1892 1.1133 1.5332-0.1278 1.9278-0.70114 4.2768-2.3984 6.3301-4.7837-5.4574-6.805-7.6841-7.7402-8.5859 0.49928-0.31653 0.92092-0.51392 1.1992-0.625 0.63186 0.52555 1.4983 0.75114 2.3535 0.52539 1.4011-0.36908 2.2394-1.806 1.8691-3.207-0.32504-1.228-1.4649-2.0238-2.6836-1.957zm-3.7676 6.0195c1.0117 0.99975 4.9369 5.4195 7.8848 8.7734-0.63902 0.59961-1.3718 1.1304-2.1816 1.5879-4.1997-4.7909-6.3413-7.1807-7.4844-8.3691 0.57214-0.83969 1.1912-1.4941 1.7812-1.9922zm-2.459 3.1406c1.6113 1.7403 4.6041 5.1178 6.9727 7.8125-0.94122 0.41089-1.9689 0.738-3.0762 0.98047l-4.9609-5.8184c0.26517-1.1502 0.63326-2.1337 1.0645-2.9746zm-1.3496 4.6211 3.7812 4.4336c-1.1897 0.172-2.4621 0.25521-3.8047 0.24805-0.16842-1.7678-0.14139-3.3212 0.023437-4.6816zm-2.3027 7.2539c0.08719 0.7955 0.13259 1.538 0.14453 2.2344l-2.2363-2.1328c0.65933-0.05136 1.356-0.084841 2.0918-0.10156zm-3.7754 0.27734 3.873 3.6953c-0.11347 1.5062-0.40867 2.7528-0.81836 3.7812l-6.7695-6.7461c1.0404-0.29144 2.272-0.55011 3.7148-0.73047zm-5.0938 1.1719 7.5566 7.5293c-0.43239 0.74414-0.92823 1.3348-1.4395 1.8066l-8.0664-8.4648c0.51719-0.28069 1.1585-0.58204 1.9492-0.87109z" fill="#fff" stroke-linecap="round" stroke-linejoin="round" stroke-width="2" style="paint-order:stroke fill markers"/>
</svg>
